X: 2
T: Gan Ainm
M: 2/4
L: 1/8
R: polka
K: A Major
|: c/B/ |
AA/B/ ce | fe cA| B>c de |fe c/e/c/B/ |
AA/B/ c/d/e |fe cA | B>c dB | BA A :|
|: c/e/ |
aA gA | fA eA |  B>c de |fe ec/e/ |
aA gA | fa/f/ ec | B>c d/c/B | BA A :|
